contracts-metadata/images/celsius.svg

<svg fill="#262761" viewBox="0 0 45 45" version="1.1" xmlns="http://www.w3.org/2000/svg" xmlns:xlink="http://www.w3.org/1999/xlink">
          <g id="Page-1" stroke="none" stroke-width="1" fill-rule="evenodd">
              <g id="Celsius_Website_Logo_Filled" fill-rule="nonzero">
                  <circle id="Oval" cx="33.6716418" cy="17.5074627" r="1.11940299"></circle>
                  <path d="M22.4776119,0.0223880597 C10.119403,0.0223880597 0.0895522388,10.0522388 0.0895522388,22.4104478 C0.0895522388,34.7686567 10.119403,44.7985075 22.4776119,44.7985075 C34.8358209,44.7985075 44.8656716,34.7686567 44.8656716,22.4104478 C44.8656716,10.0522388 34.8358209,0.0223880597 22.4776119,0.0223880597 Z M32.641791,31.7686567 C30,34.6791045 26.238806,36.358209 22.3432836,36.358209 L22.3208955,36.358209 C18.358209,36.358209 14.5746269,34.6567164 11.9328358,31.7014925 C9.24626866,28.7014925 8.01492537,24.8507463 8.44029851,20.8432836 C9.13432836,14.4402985 14.2835821,9.26865672 20.6865672,8.52985075 C21.2238806,8.46268657 21.7835821,8.44029851 22.3208955,8.44029851 C25.4104478,8.44029851 28.3656716,9.44776119 30.8283582,11.3507463 C30.9850746,11.4626866 31.0746269,11.641791 31.0746269,11.8432836 C31.0746269,12.0447761 31.0074627,12.2238806 30.8507463,12.358209 L29.3731343,13.6791045 C29.2164179,13.8134328 29.0149254,13.9029851 28.7910448,13.9029851 C28.6119403,13.9029851 28.4328358,13.858209 28.2985075,13.7462687 C26.5298507,12.5149254 24.4477612,11.8656716 22.3208955,11.8656716 C19.3208955,11.8656716 16.4552239,13.1641791 14.4626866,15.4029851 C12.4477612,17.6641791 11.5074627,20.5970149 11.8656716,23.619403 C12.4029851,28.4328358 16.2985075,32.3283582 21.1343284,32.8656716 C21.5373134,32.9104478 21.9402985,32.9328358 22.3432836,32.9328358 C25.1641791,32.9328358 27.8059701,31.8134328 29.8208955,29.7985075 C29.9776119,29.641791 30.2014925,29.5298507 30.4477612,29.5298507 C30.6044776,29.5298507 30.7835821,29.5746269 30.9179104,29.6641791 L32.5522388,30.738806 C32.7089552,30.8507463 32.8208955,31.0074627 32.8432836,31.2089552 C32.8432836,31.4328358 32.7761194,31.6343284 32.641791,31.7686567 Z M33.6716418,20.8880597 C31.8134328,20.8880597 30.2910448,19.3656716 30.2910448,17.5074627 C30.2910448,15.6492537 31.8134328,14.1268657 33.6716418,14.1268657 C35.5298507,14.1268657 37.0522388,15.6492537 37.0522388,17.5074627 C37.0522388,19.3656716 35.5298507,20.8880597 33.6716418,20.8880597 Z" id="Shape"></path>
              </g>
          </g>
          <defs>
            <linearGradient id="orange" gradientTransform="rotate(-30)">
              <stop offset="5%" stop-color="#f76c1d"></stop>
              <stop offset="95%" stop-color="#f7cc69"></stop>
            </linearGradient>

            <linearGradient id="earn" gradientTransform="rotate(-30)">
              <stop offset="5%" stop-color="#ff3cac"></stop>
              <stop offset="95%" stop-color="#21d4fd"></stop>
            </linearGradient>

            <linearGradient id="borrow" gradientTransform="rotate(-30)">
              <stop offset="5%" stop-color="#ff3cac"></stop>
              <stop offset="95%" stop-color="#88c5eb"></stop>
            </linearGradient>

            <linearGradient id="pay" gradientTransform="rotate(-30)">
              <stop offset="1%" stop-color="#a147d1"></stop>
              <stop offset="31%" stop-color="#5a5aff"></stop>
              <stop offset="60%" stop-color="#14c965"></stop>
            </linearGradient>

            <linearGradient id="celtoken" gradientTransform="rotate(-30)">
              <stop offset="1%" stop-color="#9454ff"></stop>
              <stop offset="31%" stop-color="#5a5aff"></stop>
              <stop offset="60%" stop-color="#d438b1"></stop>
            </linearGradient>
          </defs>
        </svg>

<svg fill="#262761" viewBox="0 0 45 45" xmlns="http://www.w3.org/2000/svg"><circle cx="33.672" cy="17.507" r="1.119"/><path d="M22.478.022C10.119.022.09 10.052.09 22.41c0 12.36 10.03 22.39 22.388 22.39 12.358 0 22.388-10.03 22.388-22.389 0-12.358-10.03-22.388-22.388-22.388zM32.642 31.77c-2.642 2.91-6.403 4.59-10.299 4.59h-.022a13.952 13.952 0 0 1-10.388-4.66c-2.687-3-3.918-6.85-3.493-10.858C9.134 14.44 14.284 9.27 20.687 8.53c.537-.067 1.097-.09 1.634-.09 3.09 0 6.045 1.008 8.507 2.91a.595.595 0 0 1 .247.493c0 .202-.068.38-.224.515l-1.478 1.321a.895.895 0 0 1-.582.224.763.763 0 0 1-.492-.157 10.45 10.45 0 0 0-5.978-1.88c-3 0-5.866 1.298-7.858 3.537-2.015 2.261-2.956 5.194-2.597 8.216.537 4.814 4.433 8.71 9.268 9.247.403.044.806.067 1.21.067 2.82 0 5.462-1.12 7.477-3.134a.898.898 0 0 1 .627-.27c.156 0 .336.046.47.135l1.634 1.075a.662.662 0 0 1 .291.47c0 .224-.067.425-.201.56zm1.03-10.88a3.392 3.392 0 0 1-3.381-3.382 3.392 3.392 0 0 1 3.38-3.38 3.392 3.392 0 0 1 3.381 3.38 3.392 3.392 0 0 1-3.38 3.381z"/></svg>
